X:592
T:An Dro (T. Lahais, F. Lambierge)
C:Strakal
N:
M:4/4
L:1/8
K:D
A2 AB A3F|G2F2 EFGE|A2 AB A3F|G2F2 E4:|\
|:B2cde3f|fedc d2c2|B2cd e2ef|fedc d4:|


